X: 35
T:Ships are Sailing
M:4/4
L:1/8
R:Reel
K:D
ed | Beed BcdB | AD ((3FED) ADFD | (E{G}E{D}E)F GFGA | Beef gfed |
Beed BcdB | AD ((3FED) ADFD E2 EF GFGA | Beed e2 :|| ef |:
(g{a}g{f}g)a bgeg | (f{a}f{e}f)g afdf | gfga bgeg | fedf e3 f |
gfga bgeg | fefg afdf | g2 bg f2 af | edef gfed :||
